X:316
T: GUTN ABEND JUNGFR RESL
N: E1466A
O: Europa, Mitteleuropa, Deutschland, Bayern, Landshut
R: Staende -, Jaeger - Lied, Wilderer
M: 3/4
L: 1/8
K: F
F2 | F2B2B2 | G2B2
A2 | A2GGG2 | F2z2
F2 | F2B2B2 | G2B2
A2 | A2G2G2 | F4
c2 | c2dBGE | F4

